X:1
T:Prélude No. 4
T:Op. 28 No. 4
T:Frédéric CHOPIN
%%score { 1 | 2 }
L:1/8
Q:1/4=48
M:4/4
K:G
V:1 treble nm="Piano"
V:2 bass 
V:1
"^Largo" z6"^espr." (B,>B!p! | B6 c2 | B6 c2 | (B6) c2 | B6 _B2 | A6 =B2) | (A6 B2 | A6 B>A | %8
 A6)!>(! ^G2-!>)! | G2!<(! (AB!>(! dcEA!<)!!>)! | F6) (A2 | F6){B} A2 | GFCB, ^DF (3=dc B | B6 c2 | %14
 B6 c2 | (B6 c2 | B>^A A2"^stretto" !invertedturn!g2 f>e | e^dc'd eegB) | =cA (3eEA F3 A | %19
!p! F6{B} A2 | F6 F>E | E6 F2 | E6 F2 | E4 z4 | [C,,D,,G,,E]4 [B,,,^D,,G,,^D]4 | !fermata!E8 |] %26
V:2
 z8 |"^legato" [G,B,E][G,B,E][G,B,E][G,B,E] [G,B,E][G,B,E][G,B,E][G,B,E] | %2
 [F,A,E][F,A,E][F,A,E][F,A,E] [F,A,_E][F,A,E][F,A,E][F,A,E] | %3
 [=F,A,_E][F,A,E][F,A,E][F,A,E] [F,A,D][F,A,D][F,^G,D][F,G,D] | %4
 [E,^G,D][E,G,D][E,G,D][E,G,D] [E,=G,D][E,G,D][E,G,^C][E,G,C] | %5
 [E,G,=C][E,G,C][E,G,C][E,G,C] [E,F,C][E,F,C][E,F,C][E,F,C] | %6
 [E,F,C][E,F,C][E,F,C][E,F,C] [^D,F,C][D,F,C][D,F,C][D,F,C] | %7
 [=D,F,C][D,F,C][D,F,C][D,F,C] [D,F,C][D,F,C][D,F,C][D,F,C] | %8
 [D,=F,C][D,F,C][D,F,C][D,F,C] [D,F,B,][D,F,B,][D,F,B,][D,F,B,] | %9
!>(! [C,E,B,][C,E,B,][C,E,A,][C,E,A,] [C,E,A,][C,E,A,][C,E,A,][C,E,A,]!>)! | %10
 [B,,E,A,][B,,E,A,][B,,^D,A,][B,,D,A,] [C,E,A,][C,E,A,][C,E,A,][C,E,A,] | %11
 [B,,^D,A,][B,,D,A,][B,,D,A,][B,,D,A,] [C,E,A,][C,E,A,][C,E,A,][C,E,A,] | [B,,^D,A,]2 z2 z4 | %13
 [G,B,E][G,B,E][G,B,E][G,B,E] [G,B,E][G,B,E][G,B,E][G,B,E] | %14
 [F,A,E][F,A,E][F,A,E][F,A,E] [=F,A,_E][F,A,E][F,A,E][F,A,E] | %15
 [=F,_A,_E][F,A,E][F,A,E][F,A,E] [E,^G,D][E,G,D][E,G,D][E,G,D] | %16
 [E,=G,D][E,G,D][E,G,^C][E,G,C] [^C,E,^A,][C,E,A,][=C,E,=A,][C,E,A,] | %17
 [B,,,B,,][A,CFA][A,CFA][A,CFA] [B,D^FA][G,B,E][G,B,E][G,B,E] | %18
 [A,CE][A,CE]A,,[E,F,C] [B,,E,B,][B,,E,B,][C,E,A,][C,E,A,] | %19
 [B,,E,B,][B,,E,B,][B,,E,B,][B,,E,B,] [C,E,A,][C,E,A,][C,E,A,][C,E,A,] | %20
 [B,,E,B,][B,,E,B,][B,,E,B,][B,,E,B,] [B,,^D,B,][B,,D,B,][B,,D,A,][B,,D,A,] | %21
 [C,G,][C,G,][C,G,][C,G,] [C,_B,][C,B,]"^smorz"[C,E,A,][C,E,A,] | %22
 [B,,E,A,][B,,E,A,][B,,E,^G,][B,,E,G,] [B,,E,=G,][B,,E,G,][B,,E,G,][B,,E,G,] | %23
!pp! [_A,,B,,G,]4 z4 | [B,,,-B,,]4 [B,,,F,,B,,]4 | !fermata![E,,,E,,E,G,B,]8 |] %26

